icons/Logos/bilibili-fill.svg

<svg viewBox="0 0 24 24" xmlns="http://www.w3.org/2000/svg"><path d="M18.223 3.08584C18.7112 3.574 18.7112 4.36545 18.223 4.85361L17.08 5.99598L18.25 5.99638C20.3211 5.99638 22 7.67531 22 9.74638V17.2464C22 19.3174 20.3211 20.9964 18.25 20.9964H5.75C3.67893 20.9964 2 19.3174 2 17.2464V9.74638C2 7.67531 3.67893 5.99638 5.75 5.99638L6.91625 5.99598L5.77466 4.85456C5.28651 4.36641 5.28651 3.57495 5.77466 3.0868C6.26282 2.59864 7.05427 2.59864 7.54243 3.0868L10.1941 5.73845C10.2729 5.81729 10.339 5.90403 10.3924 5.99614L13.6046 5.99636C13.6581 5.90382 13.7244 5.81667 13.8036 5.73749L16.4553 3.08584C16.9434 2.59769 17.7349 2.59769 18.223 3.08584ZM18.25 8.50638H5.75C5.09102 8.50638 4.55115 9.0163 4.50343 9.66309L4.5 9.75638V17.2564C4.5 17.9154 5.00992 18.4552 5.65671 18.5029L5.75 18.5064H18.25C18.909 18.5064 19.4489 17.9965 19.4966 17.3497L19.5 17.2564V9.75638C19.5 9.06602 18.9404 8.50638 18.25 8.50638ZM8.25 11.0064C8.94036 11.0064 9.5 11.566 9.5 12.2564V13.5064C9.5 14.1967 8.94036 14.7564 8.25 14.7564C7.55964 14.7564 7 14.1967 7 13.5064V12.2564C7 11.566 7.55964 11.0064 8.25 11.0064ZM15.75 11.0064C16.4404 11.0064 17 11.566 17 12.2564V13.5064C17 14.1967 16.4404 14.7564 15.75 14.7564C15.0596 14.7564 14.5 14.1967 14.5 13.5064V12.2564C14.5 11.566 15.0596 11.0064 15.75 11.0064Z"/></svg>

<svg xmlns="http://www.w3.org/2000/svg" viewBox="0 0 24 24">
    <g>
        <path fill="none" d="M0 0h24v24H0z"/>
        <path d="M18.223 3.086a1.25 1.25 0 0 1 0 1.768L17.08 5.996h1.17A3.75 3.75 0 0 1 22 9.747v7.5a3.75 3.75 0 0 1-3.75 3.75H5.75A3.75 3.75 0 0 1 2 17.247v-7.5a3.75 3.75 0 0 1 3.75-3.75h1.166L5.775 4.855a1.25 1.25 0 1 1 1.767-1.768l2.652 2.652c.079.079.145.165.198.257h3.213c.053-.092.12-.18.199-.258l2.651-2.652a1.25 1.25 0 0 1 1.768 0zm.027 5.42H5.75a1.25 1.25 0 0 0-1.247 1.157l-.003.094v7.5c0 .659.51 1.199 1.157 1.246l.093.004h12.5a1.25 1.25 0 0 0 1.247-1.157l.003-.093v-7.5c0-.69-.56-1.25-1.25-1.25zm-10 2.5c.69 0 1.25.56 1.25 1.25v1.25a1.25 1.25 0 1 1-2.5 0v-1.25c0-.69.56-1.25 1.25-1.25zm7.5 0c.69 0 1.25.56 1.25 1.25v1.25a1.25 1.25 0 1 1-2.5 0v-1.25c0-.69.56-1.25 1.25-1.25z"/>
    </g>
</svg>
